X:1
T:Title
%%score ( 1 2 ) { 3 | 4 }
L:1/8
Q:1/4=100
M:6/8
K:E
V:1 treble nm="Grand Piano, Soprano"
V:2 treble 
V:3 bass nm="Choir Pad, Bass"
V:4 bass 
V:1
 [EG]/[FA]/ [GB]2 [Ge] [Ad]2 | [Ac] [GB]2 [EG] E2 | z3 z .G2 | E [DF]2- [DF]2- [DF]/ z/ | %4
w: By~Irvin~J.~Heffley * * * *||||
 [EG]/[FA]/ [GB]2 [Ge] [Ad]2 | [Ac] [GB]2 [EG] E2 | z3 z .B2 | [DF] E2- E2- E/ z/ | %8
w: ||||
 [DF] [DF]2- [DF]2- [DF]/ z/ | [DB] [Fd]2- [Fd]2- [Fd]/ z/ | z3 z .^A2 | z B2- B z z | %12
w: ||||
 [DF] [DF]2- [DF]2- [DF]/ z/ | [DB] [Fd]2- [Fd]2- [Fd]/ z/ | z3 z .^A2 | %15
w: |||
 [Ec] [DB]2- [DB]2- [DB]/ z/ | [EG]/[FA]/ [GB]2 [Ge] [Ad]2 | [Ac] [GB]2 [EG] E2 | z3 z .G2 | %19
w: ||||
 E [DF]2- [DF]2- [DF]/ z/ | [EG]/[FA]/ [GB]2 [Ge] [Ad]2 | [Ac] [GB]2 [EG] E2 | [Ec] [GB]2 [GB]dc | %23
w: ||||
 [Ad] [Ge]2- [Ge]3- | [Ge]3 z3 |] %25
w: ||
V:2
 x6 | x6 | [EF] [EG]2 [EG]E-[EF] | x6 | x6 | x6 | [EF] [EG]2 [EG]D-[DA] | x6 | x6 | x6 | %10
 [FB] [F^A]2 [FA]F-[Fd] | [Ec] D2- D-[DF-]>F | x6 | x6 | [FB] [F^A]2 [FA]F-[Fd] | x6 | x6 | x6 | %18
 [EF] [EG]2 [EG]E-[EF] | x6 | x6 | x6 | z3 z A2 | x6 | x6 |] %25
V:3
 B, B,2 B, C2 | D E2 B, G,2 | A, B,2 B, ^A,2 | ^A, B,2- B,2- B,/ z/ | B, B,2 B,[K:treble] C2 | %5
 D E2 B, G,2 | A, B,2 B, F,2 | A, G,2- G,2- G,/ z/ | z3 B, B,2 | z3[K:treble] B, B,2 | %10
 D C2 CC[K:bass]B, | ^A, B,2- B,2- B,/ z/ | z3 B, B,2 | z3 B, B,2 | B, C2 CCB, | %15
 ^A, B,2- B,2- B,/ z/ | B,[K:treble] E2 E E2 | E E2[K:bass] B, G,2 | A, B,2 B, ^A,2 | %19
 ^A, B,2- B,2- B,/ z/ | B,[K:treble] E2 E E2 | E E2 B, B,2 | E E2 E[K:bass] B,2 | B, B,2- B,3- | %24
 B,3 z3 |] %25
V:4
 E, E,2 E, E,2 | E, E,2 E, E,2 | E, E,2 E, C,2 | C, B,,2- B,,2- B,,/ z/ | E, E,2 E, E,2 | %5
 E, E,2 E, E,2 | E, B,,2 B,, B,,2 | B,, E,2- E,2- E,/ z/ | z3 B,, B,,2 | z3 B,, B,,2 | %10
 B,, F,2 F, F,2 | F, B,,2- B,,2- B,,/ z/ | z3 B,, B,,2 | z3 B,, B,,2 | D, F,2 F, F,2 | %15
 F, B,,2- B,,2- B,,/ z/ | E, E,2 E, E,2 | E, E,2 E, E,2 | E, E,2 E, C,2 | C, B,,2- B,,2- B,,/ z/ | %20
 E, E,2 E, E,2 | E, E,2 E, G,2 | A, B,2 B, B,,2 | B,, E,2- E,3- | E,3 z3 |] %25

